icons/fill-new-media-sound-microphone-round-pill.svg

<svg xmlns="http://www.w3.org/2000/svg" width="32px" height="32px" viewBox="0 0 32 32" version="1.1">
    <title>fill-new-media-sound-microphone-round-pill</title>
    <g id="fill-new-media-sound-microphone-round-pill" stroke-width="1" fill-rule="evenodd">
        <path d="M25,15 C25.5522847,15 26,15.4477153 26,16 C26,21.1849719 22.0538953,25.4482817 17.0010997,25.9505155 L17,28 L19,28 C19.5522847,28 20,28.4477153 20,29 C20,29.5522847 19.5522847,30 19,30 L13,30 C12.4477153,30 12,29.5522847 12,29 C12,28.4477153 12.4477153,28 13,28 L15,28 L14.9998991,25.9506147 C9.94662476,25.4488436 6,21.1853136 6,16 C6,15.4477153 6.44771525,15 7,15 C7.55228475,15 8,15.4477153 8,16 C8,20.418278 11.581722,24 16,24 C20.418278,24 24,20.418278 24,16 C24,15.4477153 24.4477153,15 25,15 Z M16,2 C19.3137085,2 22,4.6862915 22,8 L22,16 C22,19.3137085 19.3137085,22 16,22 C12.6862915,22 10,19.3137085 10,16 L10,8 C10,4.6862915 12.6862915,2 16,2 Z" id="&#24418;&#29366;" fill-rule="nonzero" />
    </g>
</svg>

<svg xmlns="http://www.w3.org/2000/svg" viewBox="0 0 32 32"><path fill="currentColor" d="M25 15a1 1 0 0 1 1 1c0 5.185-3.946 9.448-8.999 9.95L17 28h2a1 1 0 0 1 0 2h-6a1 1 0 0 1 0-2h2v-2.05C9.947 25.45 6 21.186 6 16a1 1 0 0 1 2 0 8 8 0 1 0 16 0 1 1 0 0 1 1-1M16 2a6 6 0 0 1 6 6v8a6 6 0 1 1-12 0V8a6 6 0 0 1 6-6"/></svg>
